X: 1714
T: Sen Nazla Gezerken Güzelim...
C: Kâzım Nami Erdölen
O: Turkey
F: http://compmusic.upf.edu/node/140
N: rast--sarki--aksak--sen_nazla_gezerken--kazim_nami_erdolen
N: makam= rast
N: form= sarki
N: usul= aksak = 9/8
M: 9/8
L: 1/16
K: C _1/4B ^f  
Q: 1/4=180
%%MIDI tuningsystem comma53
B3A G2A2 BABc d6 | dc ded2 c2B2 cAG6  | \
w:  ARANAĞME  |   | 
G3A B2c2 d2e2 d2c2 B2 | 
w:   | 
d6 =fedc Bcd6  | .g4 .d2.=f2 e2d2 d4 c2 | \
w:   |   | 
e3dd3Bc2 BAB6  | 
w:   | 
d4 c2B2 A2c2 B2A2 AG | G6 D2E2 F2G6  | \
w:   |   | 
B3A G2A2 BABc d6 | 
w:  ARANAĞME  | 
dc ded2 c2B2 cAG6  | G3A B2c2 d2e2 d2c2 B2 | \
w:   |   | 
d6 =fedc Bcd6  | 
w:   | 
.g4 .d2.=f2 e2d2 d4 c2 | e3dd3Bc2 BAB6  | \
w:   |   | 
d4 c2B2 A2c2 B2A2 AG | 
w:   | 
G6 D2E2 F2G6  | B3A G2d2 d2e2 d2c2 B2 | \
w:   |  Sen  *  naz *  la  ge zer  | 
A3Bc2 d2B2 cAG6  | 
w:  ken  *  *  gü ze *  *  lim   | 
G3A B2c2 d2e2 c2B2 d2 | d6 dedc BAG6  | \
w:  gül *  ler  i çin  |  de   SAZ  | 
B3A G2d2 d2e2 d2c2 B2 | 
w:  Sen  *  naz *  la  ge zer  | 
A3Bc2 d2B2 cAG6  | G3A B2c2 d2e2 c2B2 d2 | \
w:  ken  *  *  gü ze *  *  lim   |  gül *  ler  i çin  | 
d6 =fedc Bcd6  | 
w:  de   SAZ  | 
g4 d2=f2 e2d2 d2c2 B2 | B4A2 G2G2 A2B2 c2d2  | \
w:  Ben  şi ir  o ku sam   |  hüs nü *  ne   | 
d4 c2B2 A2c2 B2A2 AG | 
w:  bül bül *  ler  i çin  | 
G6 =fedc Bcd6  | g4 d2=f2 e2d2 d2c2 B2 | \
w:  de   SAZ  |  Ben  şi ir  o ku sam   | 
B4A2 G2G2 A2B2 c2d2  | 
w:  hüs nü *  ne   | 
d4 c2B2 A2c2 B2A2 AG | G6 gagf efg6  | \
w:  bül bül *  ler  i çin  |  de   SAZ  | 
d4 g2a2 b2a2 g6 | 
w:  Yas lan  *  şu  ye tim   | 
g2 =f2e2 d2d2 edc2 BAB2  | G3A B2c2 d2e2 c2B2 d2 | \
w:  kol *  *  la ra  *  *  bir   |  ker *  re cik_ ol  | 
d6 gagf efg6  | 
w:  sun   SAZ  | 
d4 g2a2 b2a2 g6 | g2 =f2e2 d2d2 edc2 BAB2  | \
w:  Yas lan  *  şu  ye tim   |  kol *  *  la ra  *  *  bir   | 
G3A B2c2 d2e2 c2B2 d2 | 
w:  ker *  re cik_ ol  | 
d6 =fedc Bcd6  | g4 d2=f2 e2d2 d2c2 B2 | \
w:  sun   SAZ  |  Ben  şi ir  o ku sam   | 
B4A2 G2G2 A2B2 c2d2  | 
w:  hüs nü *  ne   | 
d4 c2B2 A2c2 B2A2 AG | G6 =fedc Bcd6  | \
w:  bül bül *  ler  i çin  |  de   SAZ  | 
g4 d2=f2 e2d2 d2c2 B2 | 
w:  Ben  şi ir  o ku sam   | 
B4A2 G2G2 A2B2 c2d2  | d4 c2B2 A2c2 B2A2 AG | \
w:  hüs nü *  ne   |  bül bül *  ler  i çin  | 
G6 D2E2 F2G6  | 
w:  de   SAZ KARAR  | 
|


